X: 1
T: My Dermot
C: O'Carolan (attr.)
B: O'Neill's 1850 #647
Z: 1997 by John Chambers <jc:trillian.mit.edu> (chords added in 2013)
N: "Lively"
N: collected by F.O'Neill.
M: 6/8
L: 1/8
K: Dm
F/G/ |\
"Dm"A2A "Gm"ABG | "A7"F2E "Dm"D2A/B/ | "F"c2c "C7"cdB | "F"c3 "C"c2B |\
"Dm"A2A "Gm"ABG | "A7"F2E "Dm"D2A | "Dm"d2d "A7"de^c | "Dm"d3 d2 :|
|: d/e/ |\
"F"f2f "C7"fge | "F"f2A A2A/B/ | "F"cBc "Bb"d2B | "C7"c3- c2B |\
"F"A2A "Gm"ABG | "A7"F2E "Dm"D2A | "Gm"d2d "A7"de^c | "Dm"d3 d2 :|
